X:1
T:March in D Major
T:March in D Major
T:Notebook for Anna Magdalena Bach BWV Anh. 122 
T:CPE Bach
T:Public Domain (PianoXML typeset)
C:CPE Bach
Z:Public Domain (PianoXML typeset)
%%score { 1 | 2 }
L:1/8
Q:1/4=144
M:2/2
K:D
V:1 treble nm="Piano" snm="Pno."
V:2 bass 
V:1
"^Animato"!p! c2 | .!4!d2 (!>!A4 Bc | .d2) (!>!A4!mp! Bc |!<(! !1!defg agfe!<)! | %4
!f! .f2) !>!d4 (fe | .f2) !>!d4 (!3!BA | !3!B!2!^G !>!!5!e2- edcB | A3 d{/B} B/c/B/c/ BA) | %8
 .!2!A2 (!1!EA !4!c!1!Ac!3!e | a6) ::!p! e2 | .!4!a2 (!>!e4 f^g | .a2) (!>!e4 f^g | %13
 !4!a2 =gf efge | .f2) (!>!!4!d2- d!1!AB=c |!<(! !1!B!2!def g!1!Bcd!<)! | %16
 !2!c!1!e!3!fg a!2!c!1!d!3!e | !1!d!3!gba!>(! gfe!4!d!>)! | .c2) !>!A4!p! (!5!dA | %19
!<(! !3!BAG!2!F !1!GBeB!<)! | !3!c!1!ABc !1!defg | .a2) (d2 !3!fed!2!c | %22
 .!3!d2)!f! (Ad!<(! fdfa!<)! | d'6) :| %24
V:2
 z2 | .!4!D,2 (G,2 F,2 E,2 | .D,2) (G,2 F,2 E,2 | !2!F,2 !1!D,2 C,2 !3!A,,2 | %4
 .D,,2) (D,C, .D,2) .D,,2 | .D,,2 (D,C, .D,2) .D,,2 | .D,,2 (D,C, .D,2) .D,,2 | %7
 .C,,2 (!2!F,,2 !5!D,,2 !4!E,,2 | .!1!A,,2) .!3!A,,.!2!A,, .!1!A,,.!3!A,,.!2!A,,.!1!A,, | %9
 (!5!A,,2 E,2 A,2) :: z2 | .!4!A,2 (D2 C2 B,2 | .A,2) (D2 C2 B,2 | A,2 B,2 C2 A,2 | %14
 .D2) (D,E, .F,2) .D,2 | .G,2 z2 z2 .^G,2 | .A,2 z2 z2 .^A,2 | .!1!B,2 (!2!A,2 E,2 G,2 | %18
 .A,)(A,,A,G, F,E,F,D, | .G,2) z2 z2 .G,2 | .A,2 z2 z2 .G,2 | .F,2 (!1!B,2 !3!G,2 !1!A,2 | %22
 .D,2) .!3!D,,.!2!D,, .!1!D,,.!3!D,,.!2!D,,.!1!D,, | (!5!D,,2 A,,2 D,2) :| %24

